X:866
T:Auld Lang Syne. BF12.25
M:2/4
L:1/8
Q:150
C:Browne "C" hand
S:MS12,c1835,Browne Coll.,Lakes
R:Air
O:England
A:Lakes
Z:vmp.Cherri Graebe.
K:C major
G2|c>c c>e|d>c d>e|c>c e>g|a2 a/2b/2c'|!a>e e>c|d>c d>e|c>A A>G|c2:|!
|:a|g>e e>c|d>c d>e|g>e e>g|a2 "Qu's"a/b/c'|!g>e e>c|d>c d>e|c>A A>G|c2:
||


